icons/mobile/24/svg/email-mask-24.svg

<svg width="24" height="24" viewBox="0 0 24 24" fill="none" xmlns="http://www.w3.org/2000/svg">
<path fill-rule="evenodd" clip-rule="evenodd" d="M17.5166 14.4182C18.1695 13.1095 18.6746 12.8009 19.2471 12.9192C19.7503 13.0229 20.0552 13.9269 20.2217 14.3206C20.5453 15.0858 20.8184 15.8529 20.9756 16.6643C21.0841 17.2244 21.3746 17.637 21.9434 17.637L21.9473 17.639C22.0911 17.6411 22.1901 17.7903 22.1396 17.9251C22.018 18.2504 21.6435 18.4573 21.3311 18.5774C21.4732 18.6144 21.8923 18.5316 21.9092 18.7405C21.9218 18.9121 21.4878 19.0833 21.3691 19.1409C20.2671 19.6714 19.2523 20.6236 17.9482 20.4554C17.3815 20.3813 16.9678 19.9823 16.5039 19.7347C16.2851 19.6183 16.0196 19.6183 15.8008 19.7347C15.3368 19.9823 14.9232 20.3813 14.3564 20.4554C13.0524 20.6236 12.0385 19.6715 10.9365 19.1409C10.8187 19.0855 10.381 18.9123 10.3955 18.7405C10.4142 18.5298 10.8333 18.6144 10.9736 18.5774C10.6612 18.4573 10.2866 18.2504 10.165 17.9251C10.1146 17.7901 10.2125 17.639 10.3584 17.639C10.9288 17.6369 11.2167 17.2262 11.3252 16.6663C11.4823 15.8531 11.7555 15.0877 12.0791 14.3225C12.2456 13.9308 12.5507 13.0251 13.0537 12.9212C13.6262 12.8029 14.1341 13.1096 14.7852 14.4202C15.3221 15.4978 15.6846 16.2522 15.6846 16.2522V16.2591L16.0537 16.2561L16.0625 16.2542H16.248L16.6162 16.2571V16.2503C16.6162 16.2503 16.9796 15.4978 17.5166 14.4182ZM15.3887 18.6204C15.123 17.7682 14.0322 17.4465 13.209 17.5833C13.0703 17.6057 12.6899 17.7401 12.7061 17.9153V17.9173C13.0764 18.834 14.6327 19.3094 15.3887 18.6204ZM19.0898 17.5833C18.2671 17.4466 17.1766 17.7674 16.9102 18.6184C17.6661 19.3097 19.2205 18.8322 19.5928 17.9153C19.609 17.7399 19.2282 17.6055 19.0898 17.5833Z" fill="black"/>
<path fill-rule="evenodd" clip-rule="evenodd" d="M4.63184 5.3909C7.85779 4.87092 11.1952 4.87273 14.4121 5.39872C15.7308 5.61255 16.7313 6.6412 16.9531 7.93387L16.958 7.94266L16.9541 7.94461C16.9832 8.11782 17 8.29553 17 8.47684V12.0598C16.6701 12.4017 16.3938 12.8154 16.1504 13.2571C15.8951 12.793 15.6026 12.3602 15.25 12.0091V8.9954L11.1387 11.5315C10.6327 11.8435 10.067 11.9993 9.49902 11.9993C8.93238 11.9991 8.36604 11.8433 7.86035 11.5315L3.75 8.99637V12.5227C3.75015 13.1896 4.23126 13.7703 4.87012 13.8743C6.28108 14.1043 7.71731 14.2177 9.15527 14.2347H10.2266C10.0174 14.778 9.82956 15.3523 9.68848 15.9612C8.35348 15.92 5.89605 15.8164 4.58789 15.6018C3.08905 15.3588 2.00014 14.0635 2 12.5237V8.47977C2.00003 8.29785 2.01622 8.1194 2.0459 7.94559L2.04102 7.94266L2.04785 7.92997C2.27527 6.63715 3.29228 5.60797 4.63184 5.3909ZM9.5 6.7493C7.96807 6.7493 6.42407 6.87347 4.91113 7.11844C4.71352 7.15016 4.53208 7.22272 4.37402 7.32547L8.77832 10.0423C9.22312 10.317 9.7759 10.3169 10.2207 10.0423L14.6299 7.32254C14.4808 7.22425 14.3122 7.15397 14.1299 7.1243C12.605 6.87533 11.0479 6.7493 9.5 6.7493Z" fill="black"/>
</svg>

<!-- This Source Code Form is subject to the terms of the Mozilla Public
   - License, v. 2.0. If a copy of the MPL was not distributed with this
   - file, You can obtain one at http://mozilla.org/MPL/2.0/. -->
<svg xmlns="http://www.w3.org/2000/svg" width="24" height="24" fill="none" viewBox="0 0 24 24">
    <path fill="#000" fill-rule="evenodd" d="M17.517 14.418c.652-1.308 1.158-1.617 1.73-1.499.503.104.808 1.008.975 1.402.323.765.596 1.532.754 2.343.108.56.399.973.967.973l.004.002a.212.212 0 0 1 .193.286c-.122.325-.497.532-.809.652.142.037.561-.045.578.163.013.172-.421.343-.54.4-1.102.531-2.117 1.484-3.42 1.315-.568-.074-.981-.473-1.445-.72a.75.75 0 0 0-.703 0c-.464.247-.878.646-1.445.72-1.304.169-2.317-.783-3.42-1.314-.117-.055-.555-.229-.54-.4.018-.211.437-.127.578-.164-.313-.12-.687-.327-.809-.652-.05-.135.048-.286.193-.286.57-.002.859-.413.967-.973.157-.813.43-1.578.754-2.344.167-.391.472-1.297.975-1.4.572-.12 1.08.188 1.731 1.498.537 1.078.9 1.832.9 1.832v.007l.369-.003.009-.002h.185l.368.003v-.007s.364-.752.9-1.832m-2.128 4.202c-.266-.852-1.357-1.174-2.18-1.037-.139.023-.52.157-.503.332v.002c.37.917 1.927 1.392 2.683.703m3.7-1.037c-.822-.136-1.912.184-2.179 1.035.756.692 2.31.214 2.683-.703.016-.175-.365-.31-.503-.332" clip-rule="evenodd" />
    <path fill="#000" fill-rule="evenodd" d="M4.632 5.39a30.7 30.7 0 0 1 9.78.009 3.08 3.08 0 0 1 2.541 2.535l.005.009-.004.002q.046.26.046.532v3.583c-.33.342-.606.755-.85 1.197-.255-.464-.547-.897-.9-1.248V8.995l-4.111 2.537a3.1 3.1 0 0 1-1.64.467 3.1 3.1 0 0 1-1.639-.468L3.75 8.997v3.527c0 .667.481 1.247 1.12 1.351a28.6 28.6 0 0 0 4.285.36h1.072c-.21.544-.397 1.118-.539 1.727-1.335-.041-3.792-.145-5.1-.36C3.089 15.36 2 14.064 2 12.525V8.48q0-.273.046-.534l-.005-.003.007-.013a3.12 3.12 0 0 1 2.584-2.54M9.5 6.75c-1.532 0-3.076.123-4.589.368a1.4 1.4 0 0 0-.537.207l4.404 2.717c.445.275.998.275 1.443 0l4.409-2.72a1.3 1.3 0 0 0-.5-.198A29 29 0 0 0 9.5 6.75" clip-rule="evenodd" />
</svg>
